X: 36733
T: Sheep On The Moor
R: jig
M: 6/8
K: Amajor
|:BcA BAF|ABc efg|gae fec|ecB BAB|
BcA BAF|ABc efg|gae fec|1 BAG A3:|2 BAG AB/c/e||
|:ga2 age|ef2 fef|gae fec|ecB Bce|
ga2 age|ef2 fef|gae fec|BAG AB/c/e|
ga2 age|ef2 fef|gae fec|ecB BAB|
BcA BAF|ABc efg|gae fec|BAG A3||

